libs/ui/packages/crypto-icons/src/svg/currency_arbitrum.svg

<svg width="24" height="24" stroke-miterlimit="10" version="1.1" viewBox="0 0 24 24" xml:space="preserve" xmlns="http://www.w3.org/2000/svg" xmlns:xlink="http://www.w3.org/1999/xlink">
<path d="M13.8924 11.2978L15.1259 9.2048L18.4506 14.3832L18.4521 15.3769L18.4413 8.53845C18.4334 8.37129 18.3447 8.21836 18.203 8.12819L12.2173 4.68511C12.0773 4.6163 11.8997 4.61703 11.76 4.68724C11.7411 4.69673 11.7233 4.707 11.7064 4.71821L11.6855 4.73134L5.87542 8.09827L5.85285 8.10849C5.82387 8.12183 5.79457 8.13877 5.76705 8.15847C5.65691 8.23749 5.58373 8.3543 5.56007 8.48534C5.55652 8.5052 5.55392 8.52542 5.55267 8.5458L5.56179 14.1185L8.65861 9.31859C9.0485 8.68211 9.89801 8.4771 10.6866 8.48826L11.6121 8.5127L6.15876 17.2584L6.8016 17.6285L12.3204 8.52157L14.7596 8.5127L9.25512 17.8495L11.549 19.1688L11.823 19.3264C11.939 19.3736 12.0756 19.3759 12.1925 19.3337L18.2624 15.8162L17.1019 16.4886L13.8924 11.2978ZM14.363 18.0759L12.0461 14.4396L13.4604 12.0398L16.5031 16.8356L14.363 18.0759Z" fill="#000000" fill-rule="nonzero" opacity="1" stroke="none"/>
<path d="M12.0461 14.4396L14.363 18.0759L16.5032 16.8356L13.4605 12.0398L12.0461 14.4396Z" fill="#000000" fill-opacity="0.65" fill-rule="nonzero" opacity="1" stroke="none"/>
<path d="M18.4521 15.3769L18.4506 14.3832L15.1259 9.2048L13.8923 11.2978L17.1019 16.4886L18.2624 15.8162C18.3762 15.7238 18.4451 15.5881 18.4523 15.4417L18.4521 15.3769Z" fill="#000000" fill-opacity="0.65" fill-rule="nonzero" opacity="1" stroke="none"/>
<path d="M19.4801 8.50014C19.4597 7.99001 19.1835 7.52298 18.7508 7.2511L12.6866 3.76377C12.2586 3.54824 11.724 3.54798 11.2953 3.76361C11.2446 3.78915 5.39796 7.18001 5.39796 7.18001C5.31707 7.21879 5.23914 7.26502 5.1658 7.31746C4.77957 7.59429 4.54412 8.02441 4.51994 8.49702L4.51994 15.7193L5.56179 14.1186L5.55267 8.54586C5.55392 8.52547 5.55647 8.50546 5.56007 8.48565C5.58358 8.35451 5.65681 8.23754 5.76705 8.15852C5.79457 8.13882 11.741 4.69678 11.76 4.6873C11.8998 4.61709 12.0774 4.61636 12.2173 4.68516L18.203 8.12824C18.3447 8.21841 18.4334 8.37135 18.4413 8.53851L18.4413 15.4417C18.434 15.5881 18.3762 15.7238 18.2623 15.8162L17.1019 16.4887L16.5031 16.8357L14.3629 18.0759L12.1925 19.3338C12.0756 19.376 11.9389 19.3737 11.823 19.3265L9.25506 17.8495L8.73049 18.7392L11.0382 20.0678C11.1145 20.1112 11.1825 20.1497 11.2383 20.1811C11.3247 20.2295 11.3836 20.2619 11.4044 20.272C11.5684 20.3516 11.8044 20.398 12.017 20.398C12.212 20.398 12.4021 20.3622 12.5821 20.2917L18.8862 16.6408C19.248 16.3605 19.4609 15.9377 19.4801 15.4797C19.4801 15.4797 19.4801 8.50014 19.4801 8.50014Z" fill="#000000" fill-opacity="0.15" fill-rule="nonzero" opacity="1" stroke="none"/>
</svg>

<svg xmlns="http://www.w3.org/2000/svg" xml:space="preserve" width="24" height="24" viewBox="0 0 24 24" stroke-miterlimit="10"><path d="m13.892 11.298 1.234-2.093 3.325 5.178.001.994-.01-6.839a.52.52 0 0 0-.239-.41l-5.986-3.443a.53.53 0 0 0-.51.033l-.022.013-5.81 3.367-.022.01a.51.51 0 0 0-.3.437l.009 5.573 3.097-4.8c.39-.636 1.239-.84 2.028-.83l.925.025-5.453 8.745.643.37 5.518-9.106 2.44-.01-5.505 9.337 2.294 1.32.274.157c.116.048.253.05.37.008l6.07-3.518-1.161.673zm.471 6.778-2.317-3.636 1.414-2.4 3.043 4.796z"/><path fill-opacity=".65" d="m12.046 14.44 2.317 3.636 2.14-1.24-3.043-4.796zm6.406.937-.001-.994-3.325-5.178-1.234 2.093 3.21 5.19 1.16-.672a.5.5 0 0 0 .19-.374z"/><path fill-opacity=".15" d="M19.48 8.5a1.55 1.55 0 0 0-.73-1.249l-6.063-3.487a1.58 1.58 0 0 0-1.392 0c-.05.025-5.897 3.416-5.897 3.416q-.121.059-.232.137a1.54 1.54 0 0 0-.646 1.18v7.222l1.042-1.6-.01-5.573a.51.51 0 0 1 .215-.387c.028-.02 5.974-3.462 5.993-3.472a.53.53 0 0 1 .457-.002l5.986 3.443c.142.09.23.243.238.41v6.904a.5.5 0 0 1-.179.374l-1.16.673-.599.347-2.14 1.24-2.17 1.258a.53.53 0 0 1-.37-.008L9.255 17.85l-.525.89 2.308 1.329.366.204c.164.08.4.126.613.126q.294 0 .565-.106l6.304-3.651a1.54 1.54 0 0 0 .594-1.161z"/></svg>
